X:2056
T:Ljugaren
O:Dalarna
Q:160
Z: Jimmy U, 2011-07-10
M:4/4
L:1/8
K:Am
E4|A3BA2^G2|E4E4|c4B2c2|d6c2|B3cB2A2|
^G2A2B2G2|(A8|A4):|]|:B4|c4B2c2|d4c2d2|e8|
A6B2|c4B2c2|d4c4|B3cB2A2|B4^G2E2|A3BA2^G2|
E4E4|c4B2c2|d6c2|B3cB2A2|^G2A2B2G2|(A8|A4):|]
(:musicend:)
(:music:)
